img/fxx.svg

<?xml version="1.0" encoding="UTF-8" standalone="no"?>

<svg xmlns:svg="http://www.w3.org/2000/svg" xmlns="http://www.w3.org/2000/svg" version="1.1" width="128" height="64" xmlns:xlink="http://www.w3.org/1999/xlink">
	<g stroke="null">
		<path stroke="null" fill="#221e1f" d="m28.69028,1.00508l0,44.17125l15.394,0l0,-14.36536l14.98532,0l0,-12.0282l-14.98532,0l0,-5.33524l17.69706,0l0,-12.44246l-33.09106,0"/>
		<path stroke="null" fill="#221e1f" d="m87.33696,18.8219l-17.56248,0l-5.39414,9.85248l-5.52479,-9.85248l-17.4523,0l14.2343,21.14288l-14.16712,23.04056l17.37231,0l5.52479,-10.44305l5.44892,10.44305l17.4521,0l-14.04826,-23.07901l14.11668,-21.10443"/>
		<path stroke="null" fill="#221e1f" d="m99.30972,0.99464l-17.56248,0l-5.39414,9.85245l-5.52479,-9.85245l-17.45231,0l14.2343,21.14287l-14.16712,23.04056l17.37231,0l5.52479,-10.44305l5.44893,10.44305l17.45209,0l-14.04824,-23.07898l14.11668,-21.10445"/>
	</g>
</svg>

<svg xmlns="http://www.w3.org/2000/svg" width="128" height="64"><path d="M28.69 1.005v44.17h15.394V30.812H59.07V18.784H44.084V13.45H61.78V1.004H28.69M87.337 18.82H69.774l-5.394 9.853-5.524-9.852H41.403L55.638 39.97 41.47 63.008h17.373l5.525-10.443 5.448 10.444H87.27L73.22 39.93l14.117-21.11M99.31.996H81.747l-5.394 9.852L70.828.995H53.376L67.61 22.138l-14.167 23.04h17.372l5.525-10.443 5.45 10.443h17.45l-14.047-23.08L99.31.996" stroke="null" fill="#221e1f"/></svg>
